Newaita/actions/32/zoom-in-x.svg

<svg height="32" viewBox="0 0 32 32" width="32" xmlns="http://www.w3.org/2000/svg"><g fill="#424242"><path d="m5.292969 2.894531c-1.464844 0-2.648438 1.183594-2.648438 2.648438v5.292969h2.648438v-3.972657c0-.730469.589843-1.320312 1.320312-1.320312h3.972657v-2.648438zm21.167969 18.523438v3.96875c0 .734375-.589844 1.324219-1.324219 1.324219h-3.96875v2.644531h5.292969c1.464843 0 2.644531-1.179688 2.644531-2.644531v-5.292969zm0 0"/><path d="m3.96875 18.773438c-.734375 0-1.324219.589843-1.324219 1.320312v7.941406c0 .730469.589844 1.320313 1.324219 1.320313h7.9375c.734375 0 1.324219-.589844 1.324219-1.320313v-7.941406c0-.730469-.589844-1.320312-1.324219-1.320312zm1.984375 2.644531h3.96875c.367187 0 .664063.296875.664063.664062v3.96875c0 .363281-.296876.660157-.664063.660157h-3.96875c-.367187 0-.660156-.296876-.660156-.660157v-3.96875c0-.367187.292969-.664062.660156-.664062zm0 0"/><path d="m23.152344 6.203125v2.648437h-6.597656c-.367188 0-.660157-.296874-.660157-.664062v-1.320312c0-.367188.292969-.664063.660157-.664063zm0 0"/><path d="m22.492188 12.15625v-9.261719l6.613281 4.632813zm0 0"/></g></svg>

<svg xmlns="http://www.w3.org/2000/svg" xmlns:xlink="http://www.w3.org/1999/xlink" width="32px" height="32px" viewBox="0 0 32 32" version="1.1">
<g id="surface1">
     <defs>
  <style id="current-color-scheme" type="text/css">
   .ColorScheme-Text { color:#424242; } .ColorScheme-Highlight { color:#eeeeee; }
  </style>
 </defs>
<path style="fill:currentColor" class="ColorScheme-Text" d="M 5.292969 2.894531 C 3.828125 2.894531 2.644531 4.078125 2.644531 5.542969 L 2.644531 10.835938 L 5.292969 10.835938 L 5.292969 6.863281 C 5.292969 6.132812 5.882812 5.542969 6.613281 5.542969 L 10.585938 5.542969 L 10.585938 2.894531 Z M 26.460938 21.417969 L 26.460938 25.386719 C 26.460938 26.121094 25.871094 26.710938 25.136719 26.710938 L 21.167969 26.710938 L 21.167969 29.355469 L 26.460938 29.355469 C 27.925781 29.355469 29.105469 28.175781 29.105469 26.710938 L 29.105469 21.417969 Z M 26.460938 21.417969 "/>
     <defs>
  <style id="current-color-scheme" type="text/css">
   .ColorScheme-Text { color:#424242; } .ColorScheme-Highlight { color:#eeeeee; }
  </style>
 </defs>
<path style="fill:currentColor" class="ColorScheme-Text" d="M 3.96875 18.773438 C 3.234375 18.773438 2.644531 19.363281 2.644531 20.09375 L 2.644531 28.035156 C 2.644531 28.765625 3.234375 29.355469 3.96875 29.355469 L 11.90625 29.355469 C 12.640625 29.355469 13.230469 28.765625 13.230469 28.035156 L 13.230469 20.09375 C 13.230469 19.363281 12.640625 18.773438 11.90625 18.773438 Z M 5.953125 21.417969 L 9.921875 21.417969 C 10.289062 21.417969 10.585938 21.714844 10.585938 22.082031 L 10.585938 26.050781 C 10.585938 26.414062 10.289062 26.710938 9.921875 26.710938 L 5.953125 26.710938 C 5.585938 26.710938 5.292969 26.414062 5.292969 26.050781 L 5.292969 22.082031 C 5.292969 21.714844 5.585938 21.417969 5.953125 21.417969 Z M 5.953125 21.417969 "/>
     <defs>
  <style id="current-color-scheme" type="text/css">
   .ColorScheme-Text { color:#424242; } .ColorScheme-Highlight { color:#eeeeee; }
  </style>
 </defs>
<path style="fill:currentColor" class="ColorScheme-Text" d="M 23.152344 6.203125 L 23.152344 8.851562 L 16.554688 8.851562 C 16.1875 8.851562 15.894531 8.554688 15.894531 8.1875 L 15.894531 6.867188 C 15.894531 6.5 16.1875 6.203125 16.554688 6.203125 Z M 23.152344 6.203125 "/>
     <defs>
  <style id="current-color-scheme" type="text/css">
   .ColorScheme-Text { color:#424242; } .ColorScheme-Highlight { color:#eeeeee; }
  </style>
 </defs>
<path style="fill:currentColor" class="ColorScheme-Text" d="M 22.492188 12.15625 L 22.492188 2.894531 L 29.105469 7.527344 Z M 22.492188 12.15625 "/>
</g>
</svg>
